!!!SOCIAL_FUNCTION:	misc songs
!!!PDT:	1936
!!!OTL: No_71_Our_Sweetheart_Got_Married.krn
!!!REG: Oklahoma and Montana
!!!LANG: Tone
!!!LING_GROUP: Algonquin
**kern
*staff1
=1-
*clefG2
*k[b-]
*M2/4
8f/L
16f/L
16f/JJ
8f/L
8f/J
=2
2f/
=3
*M3/4
16cc\LK
8.cc\J
8cc\L
8cc\J
8f/L
8e/J
=4
16f/LK
8.f/J
8f/L
8f/J
4c/
=5
16c/LK
8.c/J
8c/L
8c/J
8F/
8r
=6
4f/
8f/L
8f/J
8c/L
8Bn/J
=7
*M2/4
16c/LK
8.c/J
8c/L
8c/J
=8
*M3/4
8c/L
8c/J
16c/LK
8.A/J
8F/L
8F/J
=9
*M2/4
4.F/
8F/
=10
*M3/4
4F/
8F/
4.r
=11
8f/L
16f/L
16f/JJ
8f/L
8f/J
8.f/L
16a/Jk
=12
*M2/4
4f/
8f/
8r
=13
*M3/4
16cc\LK
8.cc\J
8cc\L
8cc\J
8f/L
8e/J
=14
16f/LK
8.f/J
8f/L
8f/J
8c/L
8Bn/J
=15
16d/LK
8.c/J
8c/L
8c/J
8F/
8r
=16
4f/
8f/L
8f/J
8c/L
8Bn/J
=17
*M2/4
16c/LK
8.c/J
8c/L
8c/J
=18
*M3/4
16c/LK
8.c/J
16c/LK
8.A/J
8F/L
8F/J
=19
*M2/4
4.F/
8F/
=20
4F/
8F/
8r
==
*-
